X:1
T:The Unlaid Maid
M:3/4
L:1/4
K:C
 A| G E E/2E/2| D/2C/2 E C| A, G, C| A, C/2E/2 G| A G/2E/2 D| E| F G A|\
 G/2E/2 D C| z D
M:3/4
| E/2D/2 C A,|
M:4/4
 A,/2 G,/2- G, z| G,/2A,/2|
M:6/8
 C E/2 D C/2| G G,/2 D/4 E/4- E| C3|
M:3/4
 C D E| F3| F2 G| E3/2 F/2 E| D2| D| C C C/2 D/2-| D E F| E/2 F3/2 D|\
 C2||

